X:67
T: WIE GRUENE IST DIE LINDE
N: E0679G
O: Europa, Mitteleuropa, Deutschland, Rheinland, Bonn, Kessenich
R: Liebes - Lied, Leid, Klage
M: 4/4
L: 1/8
K: E
EB | B3AB2e2 | c3BA2z2 |
B2e2=d2c2 | B4z2
B2 | B3Be2eB | B3ee=d
=cB | B2AFBA=GE | B6
=c2 | B2AFBA=GF | E4z2

@@@ Tune index: 4380
